src/images/logo-designcode.svg

<svg fill="none" height="30" viewBox="0 0 30 30" width="30" xmlns="http://www.w3.org/2000/svg" xmlns:xlink="http://www.w3.org/1999/xlink"><linearGradient id="a" gradientTransform="matrix(30.5999592 30.30000501 -30.30000501 30.5999592 0 0)" gradientUnits="userSpaceOnUse" x2="1"><stop offset="0" stop-color="#5334f5"/><stop offset="1" stop-color="#7b42f6"/></linearGradient><linearGradient id="b" gradientTransform="matrix(30.0674 0 0 36.3279 0 15)" gradientUnits="userSpaceOnUse" x2="1"><stop offset="0" stop-color="#4899f7"/><stop offset="1" stop-color="#2457f5"/></linearGradient><linearGradient id="c" gradientTransform="matrix(17.58338677 17.26798021 -12.57334225 24.14867653 0 0)" gradientUnits="userSpaceOnUse" x2="1"><stop offset="0" stop-color="#9de1e5"/><stop offset="1" stop-color="#b8dfb2"/></linearGradient><mask id="d" height="30" maskUnits="userSpaceOnUse" width="30" x="0" y="0"><path clip-rule="evenodd" d="m0 0h15c8.2843 0 15 6.71573 15 15 0 8.2843-6.7157 15-15 15h-15z" fill="#fff" fill-rule="evenodd"/></mask><mask height="24" maskUnits="userSpaceOnUse" width="17" x="13" y="3"><path clip-rule="evenodd" d="m11.3303 0c3.1671 2.7502 5.1697 6.80631 5.1697 11.3302 0 4.5241-2.0029 8.5804-5.1703 11.3306.0006-.0056-11.3297-11.3306-11.3297-11.3306z" fill="#fff" fill-rule="evenodd" transform="translate(13.5 3.66983)"/></mask><path clip-rule="evenodd" d="m0 0h15c8.2843 0 15 6.71573 15 15 0 8.2843-6.7157 15-15 15h-15z" fill="url(#a)" fill-rule="evenodd"/><g mask="url(#d)"><path clip-rule="evenodd" d="m0 0c8.28427 0 15 6.71573 15 15 0 8.2843-6.71573 15-15 15z" fill="#fff" fill-rule="evenodd" transform="translate(15.1499)"/></g><g clip-rule="evenodd" fill-rule="evenodd"><path d="m0 15 15-15c3.7603 0 7.1974 1.38364 9.83 3.66956-.0006.00544-11.33 11.33044-11.33 11.33044s11.33 11.325 11.3294 11.3309c-2.6325 2.2856-6.0694 3.6691-9.8294 3.6691z" fill="url(#b)"/><path d="m11.3303 0c3.1671 2.7502 5.1697 6.80631 5.1697 11.3302 0 4.5241-2.0029 8.5804-5.1703 11.3306.0006-.0056-11.3297-11.3306-11.3297-11.3306z" fill="url(#c)" transform="translate(13.5 3.66983)"/></g></svg>

<svg width="30" height="30" viewBox="0 0 30 30" fill="none" xmlns="http://www.w3.org/2000/svg">
<path fill-rule="evenodd" clip-rule="evenodd" d="M0 0H15C23.2843 0 30 6.71573 30 15C30 23.2843 23.2843 30 15 30H0V0Z" fill="url(#paint0_linear)"/>
<mask id="mask0" mask-type="alpha" maskUnits="userSpaceOnUse" x="0" y="0" width="30" height="30">
<path fill-rule="evenodd" clip-rule="evenodd" d="M0 0H15C23.2843 0 30 6.71573 30 15C30 23.2843 23.2843 30 15 30H0V0Z" fill="white"/>
</mask>
<g mask="url(#mask0)">
<path fill-rule="evenodd" clip-rule="evenodd" d="M0 0C8.28427 0 15 6.71573 15 15C15 23.2843 8.28427 30 0 30V0Z" transform="translate(15.1499)" fill="white"/>
</g>
<path fill-rule="evenodd" clip-rule="evenodd" d="M0 15L15 0C18.7603 0 22.1974 1.38364 24.83 3.66956C24.8294 3.675 13.5 15 13.5 15C13.5 15 24.83 26.325 24.8294 26.3309C22.1969 28.6165 18.76 30 15 30L0 15Z" fill="url(#paint1_linear)"/>
<path fill-rule="evenodd" clip-rule="evenodd" d="M11.3303 0C14.4974 2.7502 16.5 6.80631 16.5 11.3302C16.5 15.8543 14.4971 19.9106 11.3297 22.6608C11.3303 22.6552 0 11.3302 0 11.3302L11.3303 0Z" transform="translate(13.5 3.66983)" fill="url(#paint2_linear)"/>
<mask id="mask1" mask-type="alpha" maskUnits="userSpaceOnUse" x="13" y="3" width="17" height="24">
<path fill-rule="evenodd" clip-rule="evenodd" d="M11.3303 0C14.4974 2.7502 16.5 6.80631 16.5 11.3302C16.5 15.8543 14.4971 19.9106 11.3297 22.6608C11.3303 22.6552 0 11.3302 0 11.3302L11.3303 0Z" transform="translate(13.5 3.66983)" fill="white"/>
</mask>
<g mask="url(#mask1)">
</g>
<defs>
<linearGradient id="paint0_linear" x2="1" gradientUnits="userSpaceOnUse" gradientTransform="scale(43.0633) rotate(44.7178)">
<stop stop-color="#5334F5"/>
<stop offset="1" stop-color="#7B42F6"/>
</linearGradient>
<linearGradient id="paint1_linear" x2="1" gradientUnits="userSpaceOnUse" gradientTransform="translate(0 15) scale(30.0674 36.3279)">
<stop stop-color="#4899F7"/>
<stop offset="1" stop-color="#2457F5"/>
</linearGradient>
<linearGradient id="paint2_linear" x2="1" gradientUnits="userSpaceOnUse" gradientTransform="scale(21.6163 29.6874) rotate(35.5674)">
<stop stop-color="#9DE1E5"/>
<stop offset="1" stop-color="#B8DFB2"/>
</linearGradient>
</defs>
</svg>
